X:78
T:O'Gallagher's Frolics
R:jig
H:See also #80
Z:id:hn-jig-78
M:6/8
K:Edor
~E3 GFE|BAB dBA|~B3 BAB|GAB AFD|~E3 GFE|~B3 dBA|BAG FAF|1 GEE E2D:|2 GEE E3:|
|:e2f gfe|g2a bge|d2e fed|afd fed|e2f gfe|dfe dBA|BAG FAF|1 GEE E3:|2 GEE E2D||

